!!!COM: Music21
!!!OTL: A Saia da Carolina
!!!OMV: pezas_pasodobles_a-saia-da-carolina_a-saia-da-carolina-partitura.musicxml
**kern
*I"Bagpipes
*I'Bag
*clefG^2
*k[]
*M2/4
=1
!LO:TX:a:t=Allegretto
*MM120
!LO:TX:a:t=[quarter]=120
8ccL
8ddJ
8eeL
8ffJ
=||
[4gg
8ggL]
8aaJ
=
4ff
4ee
=
[4gg
8ggL]
8aaJ
=
8ffL
8ggJ
8eeL
8ffJ
=
4dd
[4cc
=
2cc]
=
8ccL
8ddJ
8eeL
8ffJ
=||
[4gg
8ggL]
8aaJ
=
4ff
4ee
=
[4gg
8ggL]
8aaJ
=
8ffL
8ggJ
8eeL
8ffJ
!!linebreak:original
=
4dd
[4cc
=
4cc_
8ccL]
8ggJ
=||
8ggL
8ggJ
8ffL
8ggJ
=
8eeL
[8ccJ
8ccL]
8ggJ
!!linebreak:original
=
4gg
8ffL
8ggJ
=
[4ee
8eeL]
8ggJ
=
8ggL
8ggJ
8ffL
8ggJ
=
8eeL
[8ccJ
8ccL]
8ddJ
=
8eeL
8eeJ
8ddL
8ddJ
=
[4cc
8ccL]
8ggJ
=
4gg
8ffL
8ggJ
=
[4ee
8eeL]
8ggJ
=
4gg
8ffL
8ggJ
=
[4ee
8eeL]
8ggJ
=
8ggL
8ggJ
8ffL
8ggJ
!!linebreak:original
=
8eeL
[8ccJ
8ccL]
8ddJ
!!linebreak:original
=
8eeL
8eeJ
8ddL
8ddJ
=
[2cc
=
2cc]
=||
8ccL
8ddJ
8eeL
8ffJ
=||
8ccc
8r
4r
==
*-
